app/assets/images/vk.svg

<?xml version="1.0" ?><svg height="508px" version="1.1" viewBox="0 0 777 508" width="777px" xmlns="http://www.w3.org/2000/svg" xmlns:sketch="http://www.bohemiancoding.com/sketch/ns" xmlns:xlink="http://www.w3.org/1999/xlink"><title/><desc/><defs/><g fill="none" fill-rule="evenodd" id="Page-1" stroke="none" stroke-width="1"><path d="M0.849684267,37.7112682 C-4.46720912,5.26682385 152.381103,25.3544974 152.381103,25.3544974 C152.381103,25.3544974 243.432877,254.010586 279.321897,254.010582 C315.210917,254.010578 297.931019,60.1164021 297.931019,60.1164021 C297.931019,60.1164021 253.402048,48.5291005 253.402049,30.7619048 C253.402051,12.994709 297.931019,0.634920635 297.931019,0.634920635 C297.931019,0.634920635 413.168963,0.634922188 428.859482,0.634920635 C444.55,0.634919061 450.794241,26.1269854 450.794257,43.1216931 C450.794272,60.1164008 450.794257,250.920635 450.794257,250.920635 L486.683277,250.920635 C486.683277,250.920635 518.630315,199.572804 543.837269,147.407407 C569.044225,95.2420119 599.664634,25.3544974 599.664634,25.3544974 L751.860664,25.3544974 C751.860664,25.3544974 779.774347,26.1209492 776.451289,49.2985698 C771.930545,80.8298057 670.67553,230.566247 649.510495,281.817088 C633.559819,320.441427 716.517779,372.719686 751.860664,428.589575 C774.798669,464.849881 776.451289,507.386243 776.451289,507.386243 L595.679561,507.386243 L505.289803,402.325025 C505.289803,402.325025 486.683277,394.603175 472.059228,405.414972 C457.43518,416.22677 456.773164,437.859416 456.773164,437.859416 L456.773164,507.386243 L315.210917,507.386243 C315.210917,507.386243 206.879245,470.306878 115.16286,308.084656 C23.4464649,145.862436 6.16657616,70.1557126 0.849684267,37.7112682 Z" fill="#4A4A4A" id="vkontakte"/></g></svg>

<svg height="508" width="777" xmlns="http://www.w3.org/2000/svg"><path d="M.85 37.711C-4.467 5.267 152.38 25.354 152.38 25.354s91.052 228.657 126.94 228.657c35.89 0 18.61-193.895 18.61-193.895s-44.529-11.587-44.529-29.354S297.931.635 297.931.635h130.928c15.691 0 21.935 25.492 21.935 42.487V250.92h35.89s31.946-51.348 57.153-103.514c25.207-52.165 55.828-122.053 55.828-122.053H751.86s27.913.767 24.59 23.945c-4.52 31.53-105.775 181.267-126.94 232.518-15.951 38.624 67.007 90.903 102.35 146.773 22.938 36.26 24.59 78.796 24.59 78.796H595.68l-90.39-105.061s-18.607-7.722-33.23 3.09c-14.625 10.812-15.287 32.444-15.287 32.444v69.527H315.211s-108.332-37.08-200.048-199.301C23.446 145.862 6.167 70.155.85 37.71z" fill="#4A4A4A" fill-rule="evenodd"/></svg>
